X:1
T: Mrs John Stewart of Bombay's Strathspey
C:William Marshall
R:Strathspey
Q: 128
K:D
M:4/4
L:1/16
|:B2|AA3 F3D A3D F3D|G3B F3A E4 E3F|DA3 FA3 GB3 FA3|B,3E DCB,A, D4 D2B2|
AA3 F3D A3D F3D|G3B F3A E4 E3F|DA3 FA3 GB3 FA3|B,3E DCB,A, D4 D2Bc|
d3A dcBe d3B Ad3|B3A Bd3 e4 e2f2|df3 Bd3 AB3 FA3|B,3E DCB,A, D4 D2Bc|
d3A dcBe d3B Ad3|B3A Bd3 e4 e2f2|d3e dcBA BABc d3F|B,3E DCB,A, D6:|
